svgs/duotone/dharmachakra.svg

<svg xmlns="http://www.w3.org/2000/svg" viewBox="0 0 512 512"><!--! Font Awesome Pro 6.3.0 by @fontawesome - https://fontawesome.com License - https://fontawesome.com/license (Commercial License) Copyright 2023 Fonticons, Inc. --><defs><style>.fa-secondary{opacity:.4}</style></defs><path class="fa-primary" d="M256 160C202.1 160 160 202.1 160 256s42.98 96 96 96s96-42.98 96-96S309 160 256 160zM256 288C238.4 288 224 273.6 224 256s14.36-32 32-32s32 14.36 32 32S273.6 288 256 288zM256 32C132.3 32 32 132.3 32 256s100.3 224 224 224c123.7 0 224-100.3 224-224S379.7 32 256 32zM256 416c-88.22 0-160-71.78-160-160s71.78-160 160-160s160 71.78 160 160S344.2 416 256 416z"/><path class="fa-secondary" d="M78.12 391.8l-12.1 11.37c-6.875 6.125-7.25 16.75-.75 23.25l21.25 21.25c6.5 6.5 17.12 6.125 23.25-.75l11.37-12.1C104.4 421.8 90.24 407.6 78.12 391.8zM256 480c-10.16 0-20.08-.9268-29.88-2.235L225 495C224.5 504.3 231.8 512 241 512h30c9.25 0 16.5-7.75 16-17l-1.124-17.24C276.1 479.1 266.2 480 256 480zM271 0h-30c-9.25 0-16.5 7.75-16 17l1.124 17.24C235.9 32.93 245.8 32 256 32s20.08 .9267 29.88 2.235L287 17C287.5 7.75 280.3 0 271 0zM162.9 126.4c-14.11 10.17-25.72 23.1-35.81 37.22l47.64 41.86c8.113-13.02 19.2-23.82 32.4-31.68C206.6 174.1 206 174.3 205.5 174.6L162.9 126.4zM173.8 304.9c.3086 .5215 .5156 1.105 .832 1.621l-48.23 42.61c10.13 14.06 22.44 26.36 36.5 36.5l42.58-48.33C192.5 329.2 181.7 318.1 173.8 304.9zM17 225C7.75 224.5 0 231.8 0 241v30c0 9.25 7.75 16.5 17 16l17.24-1.124C32.93 276.1 32 266.2 32 256s.9267-20.08 2.235-29.88L17 225zM256 160c7.557 0 14.82 1.093 21.88 2.743l3.996-64.06C273.4 97.11 264.9 96 256 96S238.6 97.11 230.1 98.68l3.996 64.06C241.2 161.1 248.4 160 256 160zM98.68 230.1C97.11 238.6 96 247.1 96 256s1.109 17.45 2.684 25.87l64.06-3.996C161.1 270.8 160 263.6 160 256s1.093-14.82 2.743-21.88L98.68 230.1zM78.12 120.2c12.12-15.86 26.27-30 42.13-42.13L108.9 65.13C102.8 58.25 92.13 57.88 85.63 64.38L64.38 85.5c-6.5 6.625-6.125 17.25 .75 23.38L78.12 120.2zM338.2 304.9c-7.863 13.19-18.66 24.28-31.68 32.4l42.18 48.01c14.13-10.15 26.44-22.46 36.58-36.58L337.4 306.5C337.7 305.1 337.9 305.4 338.2 304.9zM433.9 391.8c-12.12 15.86-26.27 30-42.13 42.13l11.37 12.1c6.125 6.875 16.75 7.25 23.38 .75l21.12-21.25c6.5-6.5 6.125-17.12-.75-23.25L433.9 391.8zM495 225l-17.24 1.124C479.1 235.9 480 245.8 480 256s-.9268 20.08-2.235 29.88L495 287C504.3 287.5 512 280.3 512 271v-30C512 231.8 504.3 224.5 495 225zM426.5 64.38c-6.625-6.5-17.25-6.125-23.38 .75l-11.37 12.1c15.85 12.12 30 26.27 42.13 42.13l12.1-11.37c6.875-6.125 7.25-16.75 .75-23.38L426.5 64.38zM337.3 205.5l47.64-41.86c-10.09-14.13-21.7-27.05-35.81-37.22L306.5 174.6c-.5156-.3164-1.1-.5234-1.621-.832C318.1 181.7 329.2 192.5 337.3 205.5zM256 416c8.889 0 17.45-1.109 25.87-2.684l-3.996-64.06C270.8 350.9 263.6 352 256 352s-14.82-1.093-21.88-2.743l-3.996 64.06C238.6 414.9 247.1 416 256 416zM413.3 281.9C414.9 273.4 416 264.9 416 256s-1.109-17.45-2.684-25.87l-64.06 3.996C350.9 241.2 352 248.4 352 256s-1.093 14.82-2.743 21.88L413.3 281.9z"/></svg>

<svg xmlns="http://www.w3.org/2000/svg" viewBox="0 0 512 512"><!-- Font Awesome Pro 6.0.0-alpha2 by @fontawesome - https://fontawesome.com License - https://fontawesome.com/license (Commercial License) --><defs><style>.fa-secondary{opacity:.4}</style></defs><path d="M78.119 391.756L65.125 403.125C58.25 409.25 57.875 419.875 64.375 426.375L85.625 447.625C92.125 454.125 102.75 453.75 108.875 446.875L120.244 433.881C104.389 421.76 90.24 407.611 78.119 391.756ZM256 480C245.844 480 235.922 479.088 226.123 477.779L225 495C224.5 504.25 231.75 512 241 512H271C280.25 512 287.5 504.25 287 495L285.877 477.779C276.078 479.088 266.156 480 256 480ZM271 0H241C231.75 0 224.5 7.75 225 17L226.123 34.221C235.922 32.912 245.844 32 256 32S276.078 32.912 285.877 34.221L287 17C287.5 7.75 280.25 0 271 0ZM162.908 126.414C148.797 136.584 137.168 149.492 127.08 163.619L174.697 205.453C182.811 192.43 193.928 181.656 207.121 173.793C206.6 174.102 206.016 174.309 205.5 174.625L162.908 126.414ZM173.793 304.879C174.102 305.4 174.309 305.984 174.625 306.5L126.414 349.092C136.547 363.152 148.848 375.453 162.908 385.586L205.453 337.303C192.43 329.189 181.656 318.072 173.793 304.879ZM17 225C7.75 224.5 0 231.75 0 241V271C0 280.25 7.75 287.5 17 287L34.221 285.877C32.912 276.078 32 266.156 32 256S32.912 235.922 34.221 226.123L17 225ZM256 160C263.557 160 270.82 161.086 277.875 162.736L281.867 98.742C273.443 97.168 264.889 96 256 96S238.557 97.168 230.133 98.742L234.125 162.736C241.18 161.086 248.443 160 256 160ZM98.742 230.133C97.168 238.557 96 247.111 96 256S97.168 273.443 98.742 281.867L162.736 277.875C161.086 270.82 160 263.557 160 256S161.086 241.18 162.736 234.125L98.742 230.133ZM78.119 120.244C90.24 104.389 104.389 90.24 120.244 78.119L108.875 65.125C102.75 58.25 92.125 57.875 85.625 64.375L64.375 85.5C57.875 92.125 58.25 102.75 65.125 108.875L78.119 120.244ZM338.207 304.879C330.344 318.072 319.57 329.189 306.547 337.303L348.703 385.287C362.83 375.139 375.139 362.832 385.287 348.703L337.375 306.5C337.691 305.984 337.898 305.4 338.207 304.879ZM433.881 391.756C421.76 407.611 407.609 421.76 391.756 433.881L403.125 446.875C409.25 453.75 419.875 454.125 426.5 447.625L447.625 426.375C454.125 419.875 453.75 409.25 446.875 403.125L433.881 391.756ZM495 225L477.779 226.123C479.088 235.922 480 245.844 480 256S479.088 276.078 477.779 285.877L495 287C504.25 287.5 512 280.25 512 271V241C512 231.75 504.25 224.5 495 225ZM426.5 64.375C419.875 57.875 409.25 58.25 403.125 65.125L391.756 78.119C407.609 90.24 421.76 104.389 433.881 120.244L446.875 108.875C453.75 102.75 454.125 92.125 447.625 85.5L426.5 64.375ZM337.303 205.453L384.92 163.619C374.832 149.492 363.203 136.584 349.092 126.414L306.5 174.625C305.984 174.309 305.4 174.102 304.879 173.793C318.072 181.656 329.189 192.43 337.303 205.453ZM256 416C264.889 416 273.443 414.832 281.867 413.258L277.875 349.264C270.82 350.914 263.557 352 256 352S241.18 350.914 234.125 349.264L230.133 413.258C238.557 414.832 247.111 416 256 416ZM413.258 281.867C414.832 273.443 416 264.889 416 256S414.832 238.557 413.258 230.133L349.264 234.125C350.914 241.18 352 248.443 352 256S350.914 270.82 349.264 277.875L413.258 281.867Z" class="fa-secondary"/><path d="M256 160C202.98 160 160 202.98 160 256S202.98 352 256 352S352 309.02 352 256S309.02 160 256 160ZM256 288C238.355 288 224 273.645 224 256S238.355 224 256 224S288 238.355 288 256S273.645 288 256 288ZM256 32C132.289 32 32 132.289 32 256S132.289 480 256 480C379.713 480 480 379.711 480 256S379.713 32 256 32ZM256 416C167.775 416 96 344.225 96 256S167.775 96 256 96S416 167.775 416 256S344.225 416 256 416Z" class="fa-primary"/></svg>
